T/the-guild.dev logo.svg

<?xml version="1.0" ?>
<svg xmlns="http://www.w3.org/2000/svg" viewBox="0 0 100 35">
	<!-- Generator: Sketch 62 (91390) - https://sketch.com -->
	<title>Logos/ Guild / Black  1</title>
	<desc>Created with Sketch.</desc>
	<g id="Logos/-Guild-/-Black--1" stroke="none" stroke-width="1" fill="none" fill-rule="evenodd">
		<path d="M1.30165955,13.7091434 C1.695122,13.8422263 2.11479259,13.9177874 2.55284291,13.9177874 C2.94630536,13.9177874 3.32581282,13.8578831 3.68421763,13.7496469 L3.68421763,13.7496469 L3.68421763,24.0358308 C3.68421763,24.3993411 3.87958739,24.7380048 4.19476579,24.9197599 L4.19476579,24.9197599 L14.102123,30.6399415 C14.5708062,30.0929742 15.2648113,29.7447804 16.0398235,29.7447804 C16.883249,29.7447804 17.6296704,30.1573033 18.09495,30.7893619 L18.09495,30.7893619 L18.120137,30.8230581 C18.1528121,30.8693478 18.183445,30.9166586 18.2130568,30.9653308 C18.2246292,30.9837106 18.2362016,31.0020903 18.2470933,31.0208104 C18.2733015,31.0657386 18.2974674,31.1113476 18.3206123,31.1576373 C18.3332058,31.182484 18.3451186,31.207671 18.3570314,31.2328581 C18.3767726,31.2757441 18.3954927,31.3193109 18.4131917,31.3635584 C18.4257852,31.3952124 18.4370172,31.4268664 18.4482493,31.4588607 C18.4625447,31.4993642 18.4764996,31.5402081 18.4884124,31.5813923 C18.4999849,31.6205343 18.5091747,31.6600167 18.5190453,31.6994991 C18.5278948,31.7365989 18.5374251,31.7733584 18.5445727,31.8107986 C18.5544433,31.8601516 18.5609103,31.9101853 18.5677176,31.9605594 C18.5714616,31.9905115 18.5772478,32.019783 18.5799707,32.0497351 C18.5877991,32.1314228 18.5925643,32.2137913 18.5925643,32.2975212 C18.5925643,32.4309444 18.57929,32.5606237 18.5592084,32.6886011 C18.5568259,32.7045982 18.5547837,32.7205954 18.5520608,32.7362522 C18.3434168,33.9353597 17.2974738,34.850262 16.0398235,34.850262 C14.9183193,34.850262 13.9656365,34.1222203 13.6235692,33.1147386 L13.6235692,33.1147386 L3.00348675,26.9833956 C1.95005571,26.3755029 1.30165955,25.2516162 1.30165955,24.0358308 L1.30165955,24.0358308 Z M29.1013472,7.45084407 C30.5090987,7.45084407 31.654088,8.59583341 31.654088,10.0035849 C31.654088,10.7694071 31.3137226,11.4555838 30.7779874,11.9239267 L30.7779874,11.9239267 L30.7779874,24.0358308 C30.7779874,25.2516162 30.1295912,26.3755029 29.0761602,26.9833956 L29.0761602,26.9833956 L19.9516435,32.2512315 C19.9414325,31.3894262 19.6500797,30.5960343 19.1667607,29.953084 L19.1667607,29.953084 L27.8848811,24.9197599 C28.2000595,24.7380048 28.3954293,24.3993411 28.3954293,24.0358308 L28.3954293,24.0358308 L28.3954293,12.4548968 C27.3304258,12.1478871 26.5486064,11.1662732 26.5486064,10.0035849 C26.5486064,9.43755714 26.7361478,8.91577692 27.049284,8.49202195 C27.0540491,8.48521464 27.0591546,8.4787477 27.0639197,8.47194039 C27.1231433,8.39365634 27.1864512,8.31809521 27.2538436,8.24695883 L27.2538436,8.24695883 L27.2630335,8.23708823 C27.4029237,8.09141183 27.5594918,7.96309406 27.7303552,7.85383675 C27.7480542,7.84226432 27.7667743,7.831713 27.7848137,7.82048094 C27.8525464,7.77997745 27.9216406,7.74185652 27.9931173,7.70747961 L27.9931173,7.70747961 L28.0557446,7.67718709 C28.1452607,7.63702396 28.2364786,7.59992413 28.3311002,7.57031234 L28.3311002,7.57031234 C28.5748019,7.49304938 28.8331392,7.45084407 29.1013472,7.45084407 Z M25.6126355,12.9546213 L25.6126355,21.3970457 C25.6126355,22.3970393 25.0745177,23.3289599 24.208628,23.8289567 L24.208628,23.8289567 L24.208628,23.8292971 L17.3853221,27.7642619 L16.755646,28.1093925 L16.7631341,27.387137 L16.7631341,24.3939634 L22.3791638,21.1516422 L22.3791638,18.1822941 L17.5987312,16.8218534 L25.6126355,12.9546213 Z M6.46704546,12.9495839 L9.70051714,14.5356868 L9.70051714,21.1513699 L15.2314555,24.3446784 L15.2314555,28.0784873 L7.8710529,23.8293652 C7.00516322,23.329028 6.46704546,22.3971074 6.46704546,21.3971137 L6.46704546,21.3971137 L6.46704546,12.9495839 Z M14.6357479,7.24842874 C15.4883634,6.75660068 16.5911474,6.75660068 17.4437628,7.24842874 L17.4437628,7.24842874 L24.9294199,11.5911514 L24.2180562,11.9277728 L21.4410145,13.2902557 L16.0397554,10.1718275 L10.6384962,13.2902557 L7.16132289,11.5840037 L7.82946025,11.1816918 C7.83558682,11.1762459 7.85294546,11.1646735 7.87166556,11.1541222 L7.87166556,11.1541222 Z M16.0397213,1 C16.6275325,1 17.2150032,1.15180299 17.7415485,1.45574932 L17.7415485,1.45574932 L26.9201834,6.75523922 C26.244558,7.21064818 25.7217566,7.87265896 25.4341478,8.64801143 L25.4341478,8.64801143 L16.5502695,3.51938498 C16.3954032,3.42952851 16.2187536,3.38255808 16.0397213,3.38255808 C15.8606891,3.38255808 15.6843798,3.42952851 15.5291732,3.51938498 L15.5291732,3.51938498 L5.06463774,9.5612119 C5.08982478,9.70518649 5.1054816,9.85222436 5.1054816,10.003687 C5.1054816,11.1020462 4.40705171,12.0377108 3.43190473,12.3971367 L3.43190473,12.3971367 L3.40910024,12.4053055 C3.33183729,12.4328751 3.25355324,12.4567007 3.17322699,12.4767823 C3.15722982,12.4808666 3.14123264,12.4856318 3.12523547,12.4890354 C3.05171653,12.5060537 2.97649577,12.5193279 2.90093464,12.5298793 C2.88017235,12.5326022 2.86009079,12.5366866 2.8393285,12.5390691 C2.74504727,12.5496205 2.64974495,12.5564278 2.5527408,12.5564278 C2.44892934,12.5564278 2.34681971,12.548259 2.24573117,12.5360058 C2.21850194,12.5326022 2.19195343,12.5278371 2.16506456,12.5237527 C2.08746124,12.5118399 2.01121938,12.4965235 1.93599862,12.4778034 C1.91285377,12.4720171 1.88970892,12.4665713 1.86656407,12.4601044 C1.66745029,12.4039441 1.4782071,12.3260004 1.30155744,12.2262733 L1.30155744,12.2262733 L1.14983171,12.1334383 C0.4580865,11.6765181 -9.73443548e-13,10.8931753 -9.73443548e-13,10.003687 C-9.73443548e-13,8.59593552 1.1453297,7.45094618 2.5527408,7.45094618 C2.91795291,7.45094618 3.26444493,7.52923023 3.57860223,7.66775896 L3.57860223,7.66775896 L14.3378941,1.45574932 C14.8644395,1.15180299 15.4522506,1 16.0397213,1 Z" id="Combined-Shape" fill="#03060D"/>
		<path d="M42.915,15 L42.915,7.382 L46.074,7.382 L46.074,4.86 L37.156,4.86 L37.156,7.382 L40.315,7.382 L40.315,15 L42.915,15 Z M51.564778,15 L51.564778,11.23 L55.698778,11.23 L55.698778,15 L58.298778,15 L58.298778,4.86 L55.698778,4.86 L55.698778,8.799 L51.564778,8.799 L51.564778,4.86 L48.977778,4.86 L48.977778,15 L51.564778,15 Z M69.613556,15 L69.613556,12.491 L64.426556,12.491 L64.426556,11.191 L68.690556,11.191 L68.690556,8.838 L64.426556,8.838 L64.426556,7.382 L69.613556,7.382 L69.613556,4.86 L61.826556,4.86 L61.826556,15 L69.613556,15 Z M42.681,30.195 C43.721,30.195 44.748,29.805 45.242,29.051 L45.242,30 L47.283,30 L47.283,24.085 L42.395,24.085 L42.395,26.243 L44.852,26.243 L44.852,26.529 C44.371,27.231 43.591,27.686 42.681,27.686 C41.147,27.686 39.925,26.464 39.925,24.93 C39.925,23.396 41.147,22.174 42.681,22.174 C43.565,22.174 44.345,22.577 44.852,23.214 L46.971,21.784 C45.996,20.51 44.423,19.665 42.681,19.665 C39.743,19.665 37.299,22.031 37.299,24.93 C37.299,27.829 39.743,30.195 42.681,30.195 Z M55.074778,30.195 C58.103778,30.195 59.741778,28.18 59.741778,25.567 L59.741778,19.86 L57.154778,19.86 L57.154778,25.411 C57.154778,26.88 56.439778,27.686 55.074778,27.686 C53.722778,27.686 53.020778,26.88 53.020778,25.411 L53.020778,19.86 L50.420778,19.86 L50.420778,25.567 C50.420778,28.18 52.032778,30.195 55.074778,30.195 Z M65.726556,30 L65.726556,19.86 L63.126556,19.86 L63.126556,30 L65.726556,30 Z M76.703334,30 L76.703334,27.491 L71.841334,27.491 L71.841334,19.86 L69.254334,19.86 L69.254334,30 L76.703334,30 Z M84.326112,30 C87.498112,30 89.123112,27.699 89.123112,24.93 C89.123112,22.174 87.498112,19.86 84.326112,19.86 L79.620112,19.86 L79.620112,30 L84.326112,30 Z M84.131112,27.491 L82.220112,27.491 L82.220112,22.382 L84.131112,22.382 C85.678112,22.382 86.497112,23.409 86.497112,24.93 C86.497112,26.451 85.678112,27.491 84.131112,27.491 Z M94.18589,30.049 C94.4262233,30.049 94.6578067,30.0180833 94.88064,29.95625 C95.1034733,29.8944167 95.31114,29.8069167 95.50364,29.69375 C95.69614,29.5805833 95.8723067,29.4446667 96.03214,29.286 C96.1919733,29.1273333 96.3284733,28.95175 96.44164,28.75925 C96.5548067,28.56675 96.6423067,28.3596667 96.70414,28.138 C96.7659733,27.9163333 96.79689,27.6865 96.79689,27.4485 C96.79689,27.2081667 96.7659733,26.9771667 96.70414,26.7555 C96.6423067,26.5338333 96.5548067,26.32675 96.44164,26.13425 C96.3284733,25.94175 96.1919733,25.7661667 96.03214,25.6075 C95.8723067,25.4488333 95.69614,25.3129167 95.50364,25.19975 C95.31114,25.0865833 95.1034733,24.9990833 94.88064,24.93725 C94.6578067,24.8754167 94.4262233,24.8445 94.18589,24.8445 C93.9455567,24.8445 93.71514,24.8754167 93.49464,24.93725 C93.27414,24.9990833 93.0670567,25.0865833 92.87339,25.19975 C92.6797233,25.3129167 92.5035567,25.4488333 92.34489,25.6075 C92.1862233,25.7661667 92.0503067,25.94175 91.93714,26.13425 C91.8239733,26.32675 91.7364733,26.5338333 91.67464,26.7555 C91.6128067,26.9771667 91.58189,27.2081667 91.58189,27.4485 C91.58189,27.6888333 91.6128067,27.91925 91.67464,28.13975 C91.7364733,28.36025 91.8239733,28.56675 91.93714,28.75925 C92.0503067,28.95175 92.1862233,29.1273333 92.34489,29.286 C92.5035567,29.4446667 92.6797233,29.5805833 92.87339,29.69375 C93.0670567,29.8069167 93.2747233,29.8944167 93.49639,29.95625 C93.7180567,30.0180833 93.94789,30.049 94.18589,30.049 Z M94.18589,29.559 C93.9012233,29.559 93.6358067,29.50475 93.38964,29.39625 C93.1434733,29.28775 92.92939,29.1384167 92.74739,28.94825 C92.56539,28.7580833 92.4224733,28.5346667 92.31864,28.278 C92.2148067,28.0213333 92.16289,27.7448333 92.16289,27.4485 C92.16289,27.1521667 92.2148067,26.8745 92.31864,26.6155 C92.4224733,26.3565 92.56539,26.13075 92.74739,25.93825 C92.92939,25.74575 93.1434733,25.5946667 93.38964,25.485 C93.6358067,25.3753333 93.9012233,25.3205 94.18589,25.3205 C94.3772233,25.3205 94.56039,25.3455833 94.73539,25.39575 C94.91039,25.4459167 95.0737233,25.5165 95.22539,25.6075 C95.3770567,25.6985 95.5147233,25.80875 95.63839,25.93825 C95.7620567,26.06775 95.86764,26.21125 95.95514,26.36875 C96.04264,26.52625 96.1103067,26.696 96.15814,26.878 C96.2059733,27.06 96.22989,27.2501667 96.22989,27.4485 C96.22989,27.7448333 96.17739,28.0213333 96.07239,28.278 C95.96739,28.5346667 95.8227233,28.7580833 95.63839,28.94825 C95.4540567,29.1384167 95.23764,29.28775 94.98914,29.39625 C94.74064,29.50475 94.47289,29.559 94.18589,29.559 Z M94.18589,29.076 C94.4542233,29.076 94.6904733,29.0310833 94.89464,28.94125 C95.0988067,28.8514167 95.26389,28.719 95.38989,28.544 L95.38989,28.544 L95.03289,28.1765 C95.0142233,28.1555 94.9920567,28.138 94.96639,28.124 C94.9407233,28.11 94.91389,28.103 94.88589,28.103 C94.8392233,28.1053333 94.8007233,28.117 94.77039,28.138 C94.7400567,28.159 94.70389,28.1811667 94.66189,28.2045 C94.61989,28.2278333 94.5668067,28.2494167 94.50264,28.26925 C94.4384733,28.2890833 94.3515567,28.299 94.24189,28.299 C94.1485567,28.299 94.0628067,28.2803333 93.98464,28.243 C93.9064733,28.2056667 93.83939,28.1508333 93.78339,28.0785 C93.72739,28.0061667 93.68364,27.9163333 93.65214,27.809 C93.62064,27.7016667 93.60489,27.578 93.60489,27.438 C93.60489,27.172 93.6649733,26.9614167 93.78514,26.80625 C93.9053067,26.6510833 94.0832233,26.5735 94.31889,26.5735 C94.4215567,26.5735 94.5038067,26.584 94.56564,26.605 C94.6274733,26.626 94.67939,26.6493333 94.72139,26.675 C94.76339,26.7006667 94.8013067,26.724 94.83514,26.745 C94.8689733,26.766 94.9092233,26.7765 94.95589,26.7765 C95.0025567,26.7765 95.03989,26.76425 95.06789,26.73975 C95.09589,26.71525 95.1192233,26.6936667 95.13789,26.675 L95.13789,26.675 L95.42489,26.2935 C95.30589,26.1535 95.1495567,26.0368333 94.95589,25.9435 C94.7622233,25.8501667 94.5312233,25.8035 94.26289,25.8035 C94.0365567,25.8035 93.82539,25.84375 93.62939,25.92425 C93.43339,26.00475 93.2624733,26.1179167 93.11664,26.26375 C92.9708067,26.4095833 92.85589,26.58225 92.77189,26.78175 C92.68789,26.98125 92.64589,27.2 92.64589,27.438 C92.64589,27.6666667 92.6820567,27.8801667 92.75439,28.0785 C92.8267233,28.2768333 92.92939,28.4500833 93.06239,28.59825 C93.19539,28.7464167 93.3569733,28.8630833 93.54714,28.94825 C93.7373067,29.0334167 93.9502233,29.076 94.18589,29.076 Z" id="theguild©" fill="#03060D" fill-rule="nonzero"/>
	</g>
</svg>

<?xml version="1.0" ?>
<svg xmlns="http://www.w3.org/2000/svg" role="img" viewBox="-1.94 -0.94 100.62 37.62">
	<g fill="#03060D" fill-rule="evenodd" stroke="none" stroke-width="1">
		<path d="M1.30166 13.70914c.39346.13309.81313.20865 1.25118.20865.39347 0 .77297-.0599 1.13138-.16814v10.28618c0 .36351.19537.70217.51055.88393l9.90735 5.72018c.46869-.54697 1.1627-.89516 1.9377-.89516.84343 0 1.58985.41252 2.05513 1.04458l.02519.0337c.03267.04629.0633.0936.09292.14227.01157.01838.02314.03676.03403.05548.02621.04493.05038.09054.07352.13683.0126.02484.0245.05003.03642.07522a2.79498 2.79498 0 0 1 .05616.1307c.0126.03165.02383.0633.03506.0953.0143.0405.02825.08135.04016.12253.01157.03914.02076.07863.03064.1181.00884.0371.01838.07387.02552.1113.00987.04936.01634.0994.02315.14977.00374.02995.00953.05922.01225.08918.00783.08168.0126.16405.0126.24778 0 .13342-.01328.2631-.03336.39108-.00238.016-.00443.032-.00715.04765-.20864 1.19911-1.25459 2.11401-2.51224 2.11401-1.1215 0-2.07418-.72804-2.41625-1.73552L3.00349 26.9834c-1.05343-.6079-1.70183-1.73178-1.70183-2.94757zm27.79969-6.2583c1.40775 0 2.55274 1.145 2.55274 2.55274 0 .76583-.34037 1.452-.8761 1.92035v12.1119c0 1.21579-.6484 2.33967-1.70183 2.94757l-9.12452 5.26783c-.0102-.8618-.30156-1.6552-.78488-2.29815l8.71812-5.03332c.31518-.18176.51055-.52042.51055-.88393V12.4549c-1.065-.30701-1.84682-1.28863-1.84682-2.45132 0-.56602.18754-1.0878.50067-1.51156.00477-.0068.00987-.01327.01464-.02008.05922-.07828.12253-.15384.18992-.22498l.0092-.00987c.13988-.14568.29645-.274.46732-.38325.0177-.01158.03641-.02213.05445-.03336.06774-.0405.13683-.07862.2083-.113l.06263-.0303c.08952-.04016.18074-.07726.27536-.10687.2437-.07726.50204-.11947.77025-.11947zm-3.48871 5.50378v8.44243c0 .99999-.53812 1.93191-1.40401 2.4319v.00035l-6.8233 3.93496-.62968.34513.00748-.72225v-2.99318l5.61603-3.24232V18.1823l-4.78043-1.36044 8.0139-3.86723zm-19.1456-.00504l3.23348 1.5861v6.61569l5.53094 3.1933v3.73382l-7.3604-4.24912c-.8659-.50034-1.40401-1.43226-1.40401-2.43226v-8.44753zm8.1687-5.70115c.85262-.49183 1.9554-.49183 2.80802 0l7.48566 4.34272-.71136.33662-2.77705 1.36249-5.40125-3.11843-5.40126 3.11843L7.16132 11.584l.66814-.4023c.00613-.00545.02349-.01703.0422-.02758zM16.03973 1c.58781 0 1.17528.1518 1.70183.45575l9.17863 5.29949c-.67562.4554-1.19842 1.11742-1.48603 1.89277l-8.88388-5.12863c-.15487-.08985-.33152-.13682-.51055-.13682-.17903 0-.35534.04697-.51055.13682L5.06464 9.56121c.02518.14398.04084.29101.04084.44248 0 1.09836-.69843 2.03402-1.67358 2.39345l-.0228.00817a2.5154 2.5154 0 0 1-.23587.07147c-.016.00409-.032.00885-.048.01226-.07351.01701-.14873.03029-.2243.04084-.02076.00272-.04084.0068-.0616.00919-.09428.01055-.18959.01736-.28659.01736-.10381 0-.20592-.00817-.307-.02042-.02724-.0034-.05379-.00817-.08068-.01226a2.54847 2.54847 0 0 1-.22906-.04595c-.02315-.00578-.0463-.01123-.06944-.0177-.19911-.05616-.38835-.1341-.565-.23383l-.15173-.09283C.4581 11.67652 0 10.89318 0 10.00369c0-1.40775 1.14533-2.55274 2.55274-2.55274.36521 0 .7117.07828 1.02586.2168l10.7593-6.212C14.86443 1.1518 15.45224 1 16.03971 1z"/>
		<path fill-rule="nonzero" d="M42.915 15V7.382h3.159V4.86h-8.918v2.522h3.159V15h2.6zm8.64978 0v-3.77h4.134V15h2.6V4.86h-2.6v3.939h-4.134V4.86h-2.587V15h2.587zm18.04878 0v-2.509h-5.187v-1.3h4.264V8.838h-4.264V7.382h5.187V4.86h-7.787V15h7.787zM42.681 30.195c1.04 0 2.067-.39 2.561-1.144V30h2.041v-5.915h-4.888v2.158h2.457v.286c-.481.702-1.261 1.157-2.171 1.157-1.534 0-2.756-1.222-2.756-2.756 0-1.534 1.222-2.756 2.756-2.756.884 0 1.664.403 2.171 1.04l2.119-1.43c-.975-1.274-2.548-2.119-4.29-2.119-2.938 0-5.382 2.366-5.382 5.265 0 2.899 2.444 5.265 5.382 5.265zm12.39378 0c3.029 0 4.667-2.015 4.667-4.628V19.86h-2.587v5.551c0 1.469-.715 2.275-2.08 2.275-1.352 0-2.054-.806-2.054-2.275V19.86h-2.6v5.707c0 2.613 1.612 4.628 4.654 4.628zM65.72656 30V19.86h-2.6V30h2.6zm10.97677 0v-2.509h-4.862V19.86h-2.587V30h7.449zm7.62278 0c3.172 0 4.797-2.301 4.797-5.07 0-2.756-1.625-5.07-4.797-5.07h-4.706V30h4.706zm-.195-2.509h-1.911v-5.109h1.911c1.547 0 2.366 1.027 2.366 2.548 0 1.521-.819 2.561-2.366 2.561zm10.05478 2.558c.24033 0 .47192-.03092.69475-.09275.22283-.06183.4305-.14933.623-.2625.1925-.11317.36867-.24908.5285-.40775.15983-.15867.29633-.33425.4095-.52675.11317-.1925.20067-.39958.2625-.62125.06183-.22167.09275-.4515.09275-.6895 0-.24033-.03092-.47133-.09275-.693-.06183-.22167-.14933-.42875-.2625-.62125-.11317-.1925-.24967-.36808-.4095-.52675-.15983-.15867-.336-.29458-.5285-.40775-.1925-.11317-.40017-.20067-.623-.2625-.22283-.06183-.45442-.09275-.69475-.09275s-.47075.03092-.69125.09275c-.2205.06183-.42758.14933-.62125.2625a2.5981 2.5981 0 0 0-.5285.40775c-.15867.15867-.29458.33425-.40775.52675-.11317.1925-.20067.39958-.2625.62125-.06183.22167-.09275.45267-.09275.693 0 .24033.03092.47075.09275.69125.06183.2205.14933.427.2625.6195.11317.1925.24908.36808.40775.52675a2.5981 2.5981 0 0 0 .5285.40775c.19367.11317.40133.20067.623.2625.22167.06183.4515.09275.6895.09275zm0-.49c-.28467 0-.55008-.05425-.79625-.16275-.24617-.1085-.46025-.25783-.64225-.448s-.32492-.41358-.42875-.67025c-.10383-.25667-.15575-.53317-.15575-.8295s.05192-.574.15575-.833.24675-.48475.42875-.67725c.182-.1925.39608-.34358.64225-.45325.24617-.10967.51158-.1645.79625-.1645.19133 0 .3745.02508.5495.07525.175.05017.33833.12075.49.21175.15167.091.28933.20125.413.33075.12367.1295.22925.273.31675.4305.0875.1575.15517.32725.203.50925.04783.182.07175.37217.07175.5705 0 .29633-.0525.57283-.1575.8295-.105.25667-.24967.48008-.434.67025s-.40075.3395-.64925.448c-.2485.1085-.51625.16275-.80325.16275zm0-.483c.26833 0 .50458-.04492.70875-.13475.20417-.08983.36925-.22225.49525-.39725l-.357-.3675c-.01867-.021-.04083-.0385-.0665-.0525-.02567-.014-.0525-.021-.0805-.021-.04667.00233-.08517.014-.1155.035-.03033.021-.0665.04317-.1085.0665-.042.02333-.09508.04492-.15925.06475s-.15108.02975-.26075.02975c-.09333 0-.17908-.01867-.25725-.056-.07817-.03733-.14525-.09217-.20125-.1645-.056-.07233-.09975-.16217-.13125-.2695-.0315-.10733-.04725-.231-.04725-.371 0-.266.06008-.47658.18025-.63175.12017-.15517.29808-.23275.53375-.23275.10267 0 .18492.0105.24675.0315.06183.021.11375.04433.15575.07.042.02567.07992.049.11375.07.03383.021.07408.0315.12075.0315s.084-.01225.112-.03675c.028-.0245.05133-.04608.07-.06475l.287-.3815c-.119-.14-.27533-.25667-.469-.35-.19367-.09333-.42467-.14-.693-.14-.22633 0-.4375.04025-.6335.12075-.196.0805-.36692.19367-.51275.3395-.14583.14583-.26075.3185-.34475.518-.084.1995-.126.41825-.126.65625 0 .22867.03617.44217.1085.6405.07233.19833.175.37158.308.51975.133.14817.29458.26483.48475.35.19017.08517.40308.12775.63875.12775z"/>
	</g>
</svg>
